X:1
T: Summertime
C: Ar. Diego E.
O: G.Gershwin
L: 1/16     
M: 4/4
Q: 1/4=140
K: Bm  
f4 d4|:"Bm"f16-|"C7"f4 e2d2 e2f2 d4|"Bm" B8 "F#7" F8-|"Bm7" F8 "B7" f4 d4| 
"Bm"e2e2- e12-|"G7"e4 d2B2 d2B2 d4|"G#m7" c16- "C#7" |"F#7"c8 z2  f4 d2|  
"Bm"f2 f4 f2-f8-|"C7"f4 e2d2 e2f2 d4|"Bm" B8   F8-|"E7" F12    F4| 
"D"A4 F2A2"Bm"B4 d4|"E7"f2e2- e4 "F#7"d8|"Bm" B16- "E7" |"C#m7" B8 "F#7" f4 d4:|]
